X:8790
T:L'auvergnate
R:Bourree
C:trad.
A:Massif Central
O:France
Z:S. Piron
M:3/8
L:1/16
Q:1/8=200
K:G
D2|G2GFGA|B2dBde|cBA2G2|FGABAF|G2GFGA|B2dBde|cBA2F2|1G4:|G4d2||
c2AcAc|B2G4|D2E2F2|GABcd2|c2AcAc|B2G4|D2E2F2|1G4d2:|2G4||
